images/linkelin.svg

<svg width="19" height="19" viewBox="0 0 19 19" fill="none" xmlns="http://www.w3.org/2000/svg">
<path d="M15.8502 15.694H13.0939V11.42C13.0939 10.4008 13.0756 9.08882 11.6604 9.08882C10.2248 9.08882 10.0051 10.1993 10.0051 11.3458V15.6937H7.24881V6.90463H9.89488V8.10575H9.93192C10.1967 7.65744 10.5794 7.28864 11.0391 7.03863C11.4989 6.78861 12.0185 6.66675 12.5427 6.68602C15.3363 6.68602 15.8514 8.50546 15.8514 10.8724L15.8502 15.694ZM4.13878 5.70323C3.82242 5.70329 3.51314 5.61046 3.25007 5.43647C2.987 5.26249 2.78195 5.01518 2.66084 4.7258C2.53972 4.43643 2.50798 4.11799 2.56964 3.81076C2.6313 3.50353 2.7836 3.2213 3.00726 2.99976C3.23091 2.77823 3.5159 2.62734 3.82616 2.56617C4.13643 2.50501 4.45804 2.53632 4.75033 2.65614C5.04263 2.77596 5.29248 2.97891 5.46828 3.23933C5.64409 3.49974 5.73796 3.80593 5.73802 4.11917C5.73805 4.32716 5.69671 4.53311 5.61636 4.72528C5.53601 4.91744 5.41824 5.09206 5.26973 5.23915C5.12123 5.38625 4.94491 5.50294 4.75086 5.58256C4.55681 5.66219 4.34883 5.70319 4.13878 5.70323ZM5.51693 15.694H2.75775V6.90463H5.51693V15.694ZM17.2244 0.0012549H1.3727C1.01292 -0.00276533 0.666217 0.134812 0.408822 0.383756C0.151426 0.632699 0.00439102 0.972641 0 1.32888V17.0896C0.00424073 17.446 0.15119 17.7861 0.408576 18.0353C0.665963 18.2845 1.01274 18.4224 1.3727 18.4186H17.2244C17.5851 18.4231 17.9328 18.2856 18.1912 18.0364C18.4496 17.7872 18.5975 17.4467 18.6025 17.0896V1.32775C18.5974 0.970797 18.4494 0.630469 18.191 0.381531C17.9325 0.132594 17.5849 -0.00459043 17.2244 0.000117282" fill="#0A033C"/>
</svg>

<svg xmlns="http://www.w3.org/2000/svg" width="19" height="19" fill="none"><path fill="#0A033C" d="M15.85 15.694h-2.756V11.42c0-1.02-.018-2.331-1.434-2.331-1.435 0-1.655 1.11-1.655 2.257v4.348H7.25v-8.79h2.646v1.202h.037a2.887 2.887 0 0 1 1.107-1.067c.46-.25.98-.372 1.504-.353 2.793 0 3.308 1.82 3.308 4.186v4.822ZM4.14 5.704a1.61 1.61 0 0 1-.889-.268 1.587 1.587 0 0 1-.59-.71A1.57 1.57 0 0 1 3.008 3a1.605 1.605 0 0 1 1.743-.344c.293.12.542.323.718.583a1.573 1.573 0 0 1-.198 2 1.6 1.6 0 0 1-1.131.464Zm1.378 9.99h-2.76v-8.79h2.76v8.79ZM17.224.001H1.373a1.365 1.365 0 0 0-.964.383A1.338 1.338 0 0 0 0 1.329v15.76c.004.357.151.697.409.946.257.25.604.387.964.384h15.851c.361.004.709-.133.967-.383.259-.249.407-.59.412-.946V1.328a1.34 1.34 0 0 0-.412-.946A1.368 1.368 0 0 0 17.224 0"/></svg>
